lib/img/icons/ui/review.svg

<?xml version="1.0" encoding="utf-8"?>
<!-- Generated by IcoMoon.io -->
<!DOCTYPE svg PUBLIC "-//W3C//DTD SVG 1.1//EN" "http://www.w3.org/Graphics/SVG/1.1/DTD/svg11.dtd">
<svg version="1.1" xmlns="http://www.w3.org/2000/svg" xmlns:xlink="http://www.w3.org/1999/xlink" width="32" height="32" viewBox="0 0 32 32">
<path fill="rgb(0, 0, 0)" d="M28 22h-7.281c-0.322-0.229-0.664-0.426-1.037-0.545 0.201-0.476 0.356-0.964 0.49-1.455h7.828v2zM28 16h-7.475c0.057 0.666 0.068 1.333 0.008 2h7.467v-2zM28 12h-8.549c0.307 0.646 0.543 1.315 0.725 2h7.824v-2zM32 7.199v18.801h-7.18l-1.998-2h7.178v-14h-8v-8h-8v4.581c-0.646-0.302-1.309-0.564-2-0.749v-5.832h12.801l7.199 7.199zM30 7.381l-5.379-5.381h-0.621v6h6v-0.619zM23.641 30.214l-1.43 1.43c-0.397 0.397-1.037 0.397-1.434 0l-4.41-4.407c-0.387-0.389-0.387-1.007-0.020-1.403l-1.928-1.93 0.023-0.024-0.002-0.003c-3.459 2.74-8.477 2.55-11.672-0.644-3.44-3.441-3.441-9.020 0-12.461s9.019-3.438 12.461 0c3.209 3.209 3.383 8.252 0.609 11.712l0.010-0.011 1.926 1.925 0.025-0.027c0.395-0.395 1.035-0.395 1.434 0l4.406 4.41c0.398 0.395 0.397 1.036 0 1.434zM13.414 12.59c-2.437-2.438-6.391-2.438-8.826-0.003-2.437 2.437-2.437 6.39 0 8.827 2.436 2.438 6.389 2.438 8.826 0s2.436-6.39 0-8.824z"></path>
</svg>

<svg xmlns="http://www.w3.org/2000/svg" width="32" height="32" viewBox="0 0 32 32" class="svg-icon">
    <path d="M28 22h-7.281a3.8 3.8 0 0 0-1.037-.545c.201-.476.356-.964.49-1.455H28v2zm0-6h-7.475c.057.666.068 1.333.008 2H28v-2zm0-4h-8.549c.307.646.543 1.315.725 2H28v-2zm4-4.801V26h-7.18l-1.998-2H30V10h-8V2h-8v4.581a12.152 12.152 0 0 0-2-.749V0h12.801L32 7.199zm-2 .182L24.621 2H24v6h6v-.619zm-6.359 22.833l-1.43 1.43a1.012 1.012 0 0 1-1.434 0l-4.41-4.407a1.012 1.012 0 0 1-.02-1.403l-1.928-1.93.023-.024-.002-.003c-3.459 2.74-8.477 2.55-11.672-.644a8.812 8.812 0 0 1 12.461-12.461c3.209 3.209 3.383 8.252.609 11.712l.01-.011 1.926 1.925.025-.027a1.016 1.016 0 0 1 1.434 0l4.406 4.41a1.011 1.011 0 0 1 0 1.434zM13.414 12.59a6.242 6.242 0 0 0-8.826-.003 6.243 6.243 0 0 0 0 8.827c2.436 2.438 6.389 2.438 8.826 0s2.436-6.39 0-8.824z"/>
</svg>
